Origami/16x16/apps/appimagekit-gravit-designer.svg

<svg width="16" height="16" version="1.1" viewBox="0 0 16 16" xmlns="http://www.w3.org/2000/svg">
 <path d="m8 0c-0.4055576 0.0020706-0.8103704 0.034978-1.2109376 0.09843752-0.7493232 0.69224932-6.1117804 6.0168873-6.6781249 6.6320313-0.0071556 0.0449932-0.0139264 0.0900468-0.0203124 0.135156 0.16106916-0.131636 0.40495076-0.3404196 0.68359376-0.5929684 0.13736596-0.1245016 0.30678022-0.2716112 0.37656252-0.327344 0.0697818-0.0557328 0.1987298-0.1672144 0.2859375-0.247656 0.2422033-0.2234132 0.8149844-0.731004 0.9828123-0.871094 0.082333-0.068726 0.402258-0.3500968 0.7109376-0.625 0.3086796-0.2749028 0.7077076-0.6264344 0.8867188-0.78125 0.1790112-0.1548152 0.550268-0.492458 0.825-0.75 0.5298964-0.4967409 2.1666212-1.9482752 2.3484372-2.0828124 0.0593956-0.04395056 0.1146164-0.0736714 0.1226564-0.065625 0.017772 0.0177816-0.0853548 0.1907888-0.4492188 0.7523438-0.1526792 0.2356312-0.7488 1.1596896-1.325 2.0531248-0.5762008 0.8934352-1.2912848 2.0018368-1.5890624 2.4632812-0.2977772 0.4614448-0.9558836 1.4817504-1.4625 2.2671876-0.5066164 0.7854376-1.1676594 1.8092264-1.4687499 2.2757816-0.18490478 0.286519-0.32420162 0.5127-0.4234375 0.680468 1.1489339 2.816126 3.795245 4.737155 6.8287694 4.957032 0.2284632 0.0026-0.1282592-0.0154 0.2284632 0.0026 0.999756-3.754199 1.8333644-10.230448 4.0337488-14.830438 0.092672-0.1937332-0.247567-0.23648744-0.203483-0.3338814-1.085005-0.52910096-2.2756782-0.8058032-3.482811-0.809375z" style="fill:#c63166"/>
 <path d="m7.5046876 0.02890624a8 8 0 0 0 -0.5132812 0.04296876 8 8 0 0 1 0.5132812 -0.04296876z" style="fill:#d8d342"/>
 <path d="m6.7843752 0.103125a8 8 0 0 0 -6.671094 6.6242186c0.5710094-0.6196356 5.9143448-5.9244219 6.671094-6.6242186z" style="fill:#b8da6c"/>
 <path d="m0.11328124 6.7273436c-3.2984e-4 3.58e-4 -0.002016 0.00276-0.002344 0.00312a8 8 0 0 0 -0.0179688 0.1171876 8 8 0 0 1 0.0203124 -0.1203128z" style="fill:#d8d342"/>
 <path d="m10.595312 0.44765624v0.001564a8 8 0 0 1 0.201563 0.0664062 8 8 0 0 0 -0.201563 -0.0679688z" style="fill:#d8d342"/>
 <path d="m10.796875 0.515625a8 8 0 0 1 0.610937 0.26171876 8 8 0 0 0 -0.610937 -0.26171876z" style="fill:#d8d342"/>
 <path d="m11.407812 0.77734376a8 8 0 0 1 0.07422 0.0328124l8e-4 -7.8e-4a8 8 0 0 0 -0.075 -0.0320312z" style="fill:#d8d342"/>
 <path d="m7.3132812 0.521875c-0.00804-0.0080464-0.0632604 0.0216744-0.1226564 0.065625-0.181816 0.13453724-1.8185408 1.5860717-2.3484372 2.0828124-0.274732 0.257542-0.6459888 0.5951848-0.825 0.75-0.1790112 0.1548156-0.5780392 0.5063472-0.8867188 0.78125-0.3086796 0.2749032-0.6286044 0.556274-0.7109376 0.625-0.1678278 0.14009-0.7406092 0.6476808-0.9828124 0.871094-0.0872078 0.0804416-0.2161557 0.1919232-0.2859376 0.247656-0.0697822 0.0557328-0.23919648 0.2028424-0.37656244 0.327344-0.278643 0.2525488-0.5225246 0.4613332-0.68359376 0.5929684a8 8 0 0 0 -0.090625 1.1343752 8 8 0 0 0 1.0265625 3.911719v-0.01875a8 8 0 0 1 -0.07187498 -0.121094 8 8 0 0 1 -0.15234376 -0.316406 8 8 0 0 1 -0.20703128 -0.441407c0.09923588-0.167768 0.23853272-0.393949 0.42343752-0.680468 0.3010904-0.4665552 0.9621336-1.490344 1.46875-2.2757816 0.5066164-0.7854372 1.1647228-1.8057424 1.4625-2.2671876 0.2977776-0.4614444 1.0128616-1.569846 1.5890624-2.4632812 0.5762-0.8934352 1.1723208-1.8174936 1.325-2.0531248 0.363864-0.561555 0.4669908-0.7345622 0.4492188-0.7523438z" style="fill:#b8da6c"/>
 <path d="m15.947656 8.8320312-7.1242184 7.1242188a8 8 0 0 0 7.1242184 -7.1242188z" style="fill:#778b3c"/>
 <path d="m11.482031 0.81015624c-0.043907 0.09701704-0.075537 0.17004876-0.167969 0.36328126-2.2003844 4.5999893-3.5874664 9.5554405-3.8164056 13.63125-0.020956 0.373082-0.049152 0.831427-0.0625 1.017968l-0.010936 0.145313c0.191478 0.017593 0.38353 0.028277 0.5757796 0.032031 0.2750488-4e-4 0.5498928-0.01502 0.8234376-0.04375l7.1242184-7.1242188c0.031897-0.2762456 0.049369-0.5539664 0.052344-0.8320312-0.004835-3.0640656-1.759362-5.8561995-4.517969-7.1898438zm-2.6585934 15.146094c3.7537924-0.39307 6.7222104-3.356278 7.1218744-7.1093748-0.399664 3.7530968-3.368082 6.7163048-7.1218744 7.1093748zm-1.3992188 0.01172v0.0031z" style="fill:#eddf36"/>
</svg>

<svg xmlns="http://www.w3.org/2000/svg" width="16" height="16" version="1.1" viewBox="0 0 16 16">
 <path style="fill:#c63166" d="M 8,0 C 7.5944424,0.0020706 7.1896296,0.034978 6.7890624,0.09843752 6.0397392,0.79068684 0.677282,6.1153248 0.11093752,6.7304688 0.10378192,6.775462 0.09701112,6.8205156 0.09062512,6.8656248 0.25169428,6.7339888 0.49557588,6.5252052 0.77421888,6.2726564 0.91158484,6.1481548 1.0809991,6.0010452 1.1507814,5.9453124 1.2205632,5.8895796 1.3495112,5.778098 1.4367189,5.6976564 1.6789222,5.4742432 2.2517033,4.9666524 2.4195312,4.8265624 c 0.082333,-0.068726 0.402258,-0.3500968 0.7109376,-0.625 0.3086796,-0.2749028 0.7077076,-0.6264344 0.8867188,-0.78125 0.1790112,-0.1548152 0.550268,-0.492458 0.825,-0.75 C 5.372084,2.1735715 7.0088088,0.72203724 7.1906248,0.5875 7.2500204,0.54354944 7.3052412,0.5138286 7.3132812,0.521875 7.3310532,0.5396566 7.2279264,0.7126638 6.8640624,1.2742188 6.7113832,1.50985 6.1152624,2.4339084 5.5390624,3.3273436 4.9628616,4.2207788 4.2477776,5.3291804 3.95,5.7906248 3.6522228,6.2520696 2.9941164,7.2723752 2.4875,8.0578124 1.9808836,8.84325 1.3198406,9.8670388 1.0187501,10.333594 c -0.18490478,0.286519 -0.32420162,0.5127 -0.4234375,0.680468 1.1489339,2.816126 3.795245,4.737155 6.8287694,4.957032 0.2284632,0.0026 -0.1282592,-0.0154 0.2284632,0.0026 C 8.6523012,12.219495 9.4859096,5.7432456 11.686294,1.1432564 11.778966,0.9495232 11.438727,0.90676896 11.482811,0.809375 10.397806,0.28027404 9.2071328,0.0035718 8,0 Z"/>
 <path style="fill:#d8d342" d="M 7.5046876,0.02890624 A 8,8 0 0 0 6.9914064,0.071875 8,8 0 0 1 7.5046876,0.02890624 Z"/>
 <path style="fill:#b8da6c" d="M 6.7843752,0.103125 A 8,8 0 0 0 0.11328124,6.7273436 C 0.68429064,6.107708 6.027626,0.80292168 6.7843752,0.103125 Z"/>
 <path style="fill:#d8d342" d="m 0.11328124,6.7273436 c -3.2984e-4,3.58e-4 -0.002016,0.00276 -0.002344,0.00312 a 8,8 0 0 0 -0.0179688,0.1171876 8,8 0 0 1 0.0203124,-0.1203128 z"/>
 <path style="fill:#d8d342" d="m 10.595312,0.44765624 0,0.001564 a 8,8 0 0 1 0.201563,0.0664062 8,8 0 0 0 -0.201563,-0.0679688 z"/>
 <path style="fill:#d8d342" d="M 10.796875,0.515625 A 8,8 0 0 1 11.407812,0.77734376 8,8 0 0 0 10.796875,0.515625 Z"/>
 <path style="fill:#d8d342" d="m 11.407812,0.77734376 a 8,8 0 0 1 0.07422,0.0328124 c 0,0 8e-4,-7.8e-4 8e-4,-7.8e-4 a 8,8 0 0 0 -0.075,-0.0320312 z"/>
 <path style="fill:#b8da6c" d="M 7.3132812,0.521875 C 7.3052412,0.5138286 7.2500208,0.5435494 7.1906248,0.5875 7.0088088,0.72203724 5.372084,2.1735717 4.8421876,2.6703124 c -0.274732,0.257542 -0.6459888,0.5951848 -0.825,0.75 C 3.8381764,3.575128 3.4391484,3.9266596 3.1304688,4.2015624 2.8217892,4.4764656 2.5018644,4.7578364 2.4195312,4.8265624 2.2517034,4.9666524 1.678922,5.4742432 1.4367188,5.6976564 1.349511,5.778098 1.2205631,5.8895796 1.1507812,5.9453124 1.080999,6.0010452 0.91158472,6.1481548 0.77421876,6.2726564 0.49557576,6.5252052 0.25169416,6.7339896 0.090625,6.8656248 A 8,8 0 0 0 0,8 8,8 0 0 0 1.0265625,11.911719 l 0,-0.01875 A 8,8 0 0 1 0.95468752,11.771875 8,8 0 0 1 0.80234376,11.455469 8,8 0 0 1 0.59531248,11.014062 C 0.69454836,10.846294 0.8338452,10.620113 1.01875,10.333594 1.3198404,9.8670388 1.9808836,8.84325 2.4875,8.0578124 2.9941164,7.2723752 3.6522228,6.25207 3.95,5.7906248 4.2477776,5.3291804 4.9628616,4.2207788 5.5390624,3.3273436 6.1152624,2.4339084 6.7113832,1.50985 6.8640624,1.2742188 7.2279264,0.7126638 7.3310532,0.5396566 7.3132812,0.521875 Z"/>
 <path style="fill:#778b3c" d="M 15.947656,8.8320312 8.8234376,15.95625 A 8,8 0 0 0 15.947656,8.8320312 Z"/>
 <path style="fill:#eddf36" d="M 11.482031,0.81015624 C 11.438124,0.90717328 11.406494,0.980205 11.314062,1.1734375 9.1136776,5.7734268 7.7265956,10.728878 7.4976564,14.804688 c -0.020956,0.373082 -0.049152,0.831427 -0.0625,1.017968 l -0.010936,0.145313 C 7.6156984,15.985562 7.8077504,15.996246 8,16 8.2750488,15.9996 8.5498928,15.98498 8.8234376,15.95625 L 15.947656,8.8320312 C 15.979553,8.5557856 15.997025,8.2780648 16,8 15.995165,4.9359344 14.240638,2.1438005 11.482031,0.81015624 Z M 8.8234376,15.95625 C 12.57723,15.56318 15.545648,12.599972 15.945312,8.8468752 15.545648,12.599972 12.57723,15.56318 8.8234376,15.95625 Z m -1.3992188,0.01172 c 0,0 0,-0.0029 0,0.0031 z"/>
</svg>
